btlcenter/img/icon_catering.svg

<svg fill="none" height="50" viewBox="0 0 50 50" width="50" xmlns="http://www.w3.org/2000/svg"><g fill="#000"><path d="m42.5532 14.3618h-14.8351c-.4408 0-.7979.3572-.7979.7978s.3571.7979.7979.7979h14.835c.4407 0 .7979-.3573.7979-.7979s-.3571-.7978-.7978-.7978z"/><path d="m48.4155 20.7447h-1.8729v-7.9787h.2659c.4407 0 .7978-.3572.7978-.7978 0-.4407-.3571-.7979-.7978-.7979h-1.3603c-.3885-5.08456-4.4594-9.15546-9.544-9.54403v-.828418c0-.440625-.3571-.797852-.7979-.797852-.4407 0-.7978.357227-.7978.797852v.828318c-5.0846.38858-9.1555 4.45947-9.544 9.54403h-1.3602c-.4407 0-.7979.3572-.7979.7979 0 .4406.3572.7978.7979.7978h.2659v7.9787h-5.5872c.3491-.4641.5997-1.0064.7198-1.5957h.3462c.4407 0 .7979-.3572.7979-.7978 0-.4407-.3572-.7979-.7979-.7979h-1.066c.3491-.4641.5997-1.0064.7198-1.5957h.3462c.4407 0 .7979-.3572.7979-.7978 0-.4407-.3572-.7979-.7979-.7979h-1.066c.3491-.4641.5997-1.0064.7198-1.5957h.3462c.4407 0 .7979-.3572.7979-.7978 0-.4407-.3572-.7979-.7979-.7979h-1.066c.3491-.4641.5997-1.0064.7198-1.59569h.3462c.4407 0 .7979-.35723.7979-.79785 0-.44063-.3572-.79786-.7979-.79786h-15.9575c-.44072 0-.79785.35723-.79785.79786 0 .44062.35713.79785.79785.79785h.34629c.12012.58929.37051 1.13159.71983 1.59569h-1.06612c-.44072 0-.79785.3572-.79785.7979 0 .4406.35713.7978.79785.7978h.34629c.12012.5893.37051 1.1317.71983 1.5957h-1.06612c-.44072 0-.79785.3572-.79785.7979 0 .4406.35713.7978.79785.7978h.34629c.12012.5893.37051 1.1317.71983 1.5957h-1.06612c-.44072 0-.79785.3572-.79785.7979 0 .4406.35713.7978.79785.7978h.34629c.12012.5893.37051 1.1317.71983 1.5957h-2.67315c-.44072 0-.797849.3573-.797849.7979v6.383c0 .4406.357129.7978.797849.7978h39.38173c.4407 0 .7979-.3572.7979-.7978s-.3572-.7979-.7979-.7979h-38.58388v-4.7872h45.23548v4.7872h-3.4601c-.4407 0-.7978.3573-.7978.7979s.3571.7978.7978.7978h3.1826v16.4532c-1.2013-.1164-1.8929-.498-2.6729-.9284-.9882-.5451-2.1081-1.163-4.2417-1.163s-3.2536.6179-4.2417 1.163c-.9381.5176-1.7484.9646-3.471.9646-1.7227 0-2.533-.447-3.4711-.9646-.9882-.5451-2.1081-1.163-4.2419-1.163s-3.2537.6179-4.2419 1.163c-.9381.5176-1.7484.9646-3.4711.9646-1.7225 0-2.5329-.447-3.4709-.9646-.9881-.5451-2.108-1.163-4.24159-1.163s-3.25361.6179-4.2417 1.163c-.22226.1226-.4374.2409-.65918.3505-.55713.2755-1.15517.4946-2.01396.5778v-14.0594c0-.4406-.35713-.7979-.79785-.7979-.44073 0-.79786.3573-.79786.7979v14.8936c0 .4407.35713.7979.79786.7979.98584 0 1.75361-.1327 2.39365-.3284v2.722c0 .4406.35713.7978.79785.7978s.79785-.3572.79785-.7978v-3.4184c.08526-.0464.16953-.0926.25244-.1383.93809-.5176 1.74834-.9645 3.4709-.9645 1.72259 0 2.53279.447 3.47069.9644.9881.5452 2.108 1.1632 4.2417 1.1632 2.1338 0 3.2537-.618 4.2419-1.1631.9381-.5176 1.7484-.9645 3.4711-.9645s2.533.447 3.4711.9645c.9882.5452 2.1081 1.1631 4.2419 1.1631 2.1337 0 3.2537-.618 4.2418-1.1631.9381-.5176 1.7483-.9645 3.4709-.9645 1.7225 0 2.5328.447 3.4707.9644.0829.0457.1671.0919.2523.1383v3.4185c0 .4407.3572.7979.7979.7979s.7978-.3572.7978-.7979v-2.7221c.6401.1957 1.4078.3285 2.3937.3285.4407 0 .7978-.3572.7978-.7979v-17.481c.1697-.1463.2775-.3623.2775-.604v-6.383c.0001-.4406-.3571-.7979-.7978-.7979zm-33.5218 0h-7.44692c-1.04014 0-1.92705-.6671-2.25635-1.5957h11.95957c-.3294.9285-1.2163 1.5957-2.2563 1.5957zm0-3.1915h-7.44692c-1.04014 0-1.92705-.6671-2.25635-1.5957h11.95957c-.3294.9285-1.2163 1.5957-2.2563 1.5957zm0-3.1915h-7.44692c-1.04014 0-1.92705-.6671-2.25635-1.5957h11.95957c-.3294.9285-1.2163 1.5957-2.2563 1.5957zm0-3.1915h-7.44692c-1.04014 0-1.92705-.6671-2.25635-1.59569h11.95957c-.3294.92859-1.2163 1.59569-2.2563 1.59569zm20.2126-7.9787c4.5704 0 8.3341 3.51202 8.7387 7.9787h-17.4773c.4047-4.46668 4.1683-7.9787 8.7386-7.9787zm9.8405 17.5532h-19.6809v-7.9787h19.6809z"/><path d="m43.617 37.234c.4406 0 .7978-.3572.7978-.7978 0-.4407-.3572-.7979-.7978-.7979-.4407 0-.7979.3572-.7979.7979 0 .4406.3572.7978.7979.7978z"/><path d="m40.4255 40.4255c.4406 0 .7978-.3572.7978-.7978 0-.4407-.3572-.7979-.7978-.7979s-.7979.3572-.7979.7979c0 .4406.3573.7978.7979.7978z"/></g></svg>

<svg width="50" height="50" viewBox="0 0 50 50" fill="none" xmlns="http://www.w3.org/2000/svg">
<path d="M42.5532 14.3618H27.7181C27.2773 14.3618 26.9202 14.719 26.9202 15.1596C26.9202 15.6002 27.2773 15.9575 27.7181 15.9575H42.5531C42.9938 15.9575 43.351 15.6002 43.351 15.1596C43.351 14.719 42.9939 14.3618 42.5532 14.3618Z" fill="black"/>
<path d="M48.4155 20.7447H46.5426V12.766H46.8085C47.2492 12.766 47.6063 12.4088 47.6063 11.9682C47.6063 11.5275 47.2492 11.1703 46.8085 11.1703H45.4482C45.0597 6.08574 40.9888 2.01484 35.9042 1.62627V0.797852C35.9042 0.357227 35.5471 0 35.1063 0C34.6656 0 34.3085 0.357227 34.3085 0.797852V1.62617C29.2239 2.01475 25.153 6.08564 24.7645 11.1702H23.4043C22.9636 11.1702 22.6064 11.5274 22.6064 11.9681C22.6064 12.4087 22.9636 12.7659 23.4043 12.7659H23.6702V20.7446H18.083C18.4321 20.2805 18.6827 19.7382 18.8028 19.1489H19.149C19.5897 19.1489 19.9469 18.7917 19.9469 18.3511C19.9469 17.9104 19.5897 17.5532 19.149 17.5532H18.083C18.4321 17.0891 18.6827 16.5468 18.8028 15.9575H19.149C19.5897 15.9575 19.9469 15.6003 19.9469 15.1597C19.9469 14.719 19.5897 14.3618 19.149 14.3618H18.083C18.4321 13.8977 18.6827 13.3554 18.8028 12.7661H19.149C19.5897 12.7661 19.9469 12.4089 19.9469 11.9683C19.9469 11.5276 19.5897 11.1704 19.149 11.1704H18.083C18.4321 10.7063 18.6827 10.164 18.8028 9.57471H19.149C19.5897 9.57471 19.9469 9.21748 19.9469 8.77686C19.9469 8.33623 19.5897 7.979 19.149 7.979H3.1915C2.75078 7.979 2.39365 8.33623 2.39365 8.77686C2.39365 9.21748 2.75078 9.57471 3.1915 9.57471H3.53779C3.65791 10.164 3.9083 10.7063 4.25762 11.1704H3.1915C2.75078 11.1704 2.39365 11.5276 2.39365 11.9683C2.39365 12.4089 2.75078 12.7661 3.1915 12.7661H3.53779C3.65791 13.3554 3.9083 13.8978 4.25762 14.3618H3.1915C2.75078 14.3618 2.39365 14.719 2.39365 15.1597C2.39365 15.6003 2.75078 15.9575 3.1915 15.9575H3.53779C3.65791 16.5468 3.9083 17.0892 4.25762 17.5532H3.1915C2.75078 17.5532 2.39365 17.9104 2.39365 18.3511C2.39365 18.7917 2.75078 19.1489 3.1915 19.1489H3.53779C3.65791 19.7382 3.9083 20.2806 4.25762 20.7446H1.58447C1.14375 20.7446 0.786621 21.1019 0.786621 21.5425V27.9255C0.786621 28.3661 1.14375 28.7233 1.58447 28.7233H40.9662C41.4069 28.7233 41.7641 28.3661 41.7641 27.9255C41.7641 27.4849 41.4069 27.1276 40.9662 27.1276H2.38232V22.3404H47.6178V27.1276H44.1577C43.717 27.1276 43.3599 27.4849 43.3599 27.9255C43.3599 28.3661 43.717 28.7233 44.1577 28.7233H47.3403V45.1765C46.139 45.0601 45.4474 44.6785 44.6674 44.2481C43.6792 43.703 42.5593 43.0851 40.4257 43.0851C38.2921 43.0851 37.1721 43.703 36.184 44.2481C35.2459 44.7657 34.4356 45.2127 32.713 45.2127C30.9903 45.2127 30.18 44.7657 29.2419 44.2481C28.2537 43.703 27.1338 43.0851 25 43.0851C22.8662 43.0851 21.7463 43.703 20.7581 44.2481C19.82 44.7657 19.0097 45.2127 17.287 45.2127C15.5645 45.2127 14.7541 44.7657 13.8161 44.2481C12.828 43.703 11.7081 43.0851 9.57451 43.0851C7.44092 43.0851 6.3209 43.703 5.33281 44.2481C5.11055 44.3707 4.89541 44.489 4.67363 44.5986C4.1165 44.8741 3.51846 45.0932 2.65967 45.1764V31.117C2.65967 30.6764 2.30254 30.3191 1.86182 30.3191C1.42109 30.3191 1.06396 30.6764 1.06396 31.117V46.0106C1.06396 46.4513 1.42109 46.8085 1.86182 46.8085C2.84766 46.8085 3.61543 46.6758 4.25547 46.4801V49.2021C4.25547 49.6427 4.6126 49.9999 5.05332 49.9999C5.49404 49.9999 5.85117 49.6427 5.85117 49.2021V45.7837C5.93643 45.7373 6.0207 45.6911 6.10361 45.6454C7.0417 45.1278 7.85195 44.6809 9.57451 44.6809C11.2971 44.6809 12.1073 45.1279 13.0452 45.6453C14.0333 46.1905 15.1532 46.8085 17.2869 46.8085C19.4207 46.8085 20.5406 46.1905 21.5288 45.6454C22.4669 45.1278 23.2772 44.6809 24.9999 44.6809C26.7226 44.6809 27.5329 45.1279 28.471 45.6454C29.4592 46.1906 30.5791 46.8085 32.7129 46.8085C34.8466 46.8085 35.9666 46.1905 36.9547 45.6454C37.8928 45.1278 38.703 44.6809 40.4256 44.6809C42.1481 44.6809 42.9584 45.1279 43.8963 45.6453C43.9792 45.691 44.0634 45.7372 44.1486 45.7836V49.2021C44.1486 49.6428 44.5058 50 44.9465 50C45.3872 50 45.7443 49.6428 45.7443 49.2021V46.48C46.3844 46.6757 47.1521 46.8085 48.138 46.8085C48.5787 46.8085 48.9358 46.4513 48.9358 46.0106V28.5296C49.1055 28.3833 49.2133 28.1673 49.2133 27.9256V21.5426C49.2134 21.102 48.8562 20.7447 48.4155 20.7447ZM14.8937 20.7447H7.44678C6.40664 20.7447 5.51973 20.0776 5.19043 19.149H17.15C16.8206 20.0775 15.9337 20.7447 14.8937 20.7447ZM14.8937 17.5532H7.44678C6.40664 17.5532 5.51973 16.8861 5.19043 15.9575H17.15C16.8206 16.886 15.9337 17.5532 14.8937 17.5532ZM14.8937 14.3617H7.44678C6.40664 14.3617 5.51973 13.6946 5.19043 12.766H17.15C16.8206 13.6945 15.9337 14.3617 14.8937 14.3617ZM14.8937 11.1702H7.44678C6.40664 11.1702 5.51973 10.5031 5.19043 9.57451H17.15C16.8206 10.5031 15.9337 11.1702 14.8937 11.1702ZM35.1063 3.1915C39.6767 3.1915 43.4404 6.70352 43.845 11.1702H26.3677C26.7724 6.70352 30.536 3.1915 35.1063 3.1915ZM44.9468 20.7447H25.2659V12.766H44.9468V20.7447Z" fill="black"/>
<path d="M43.617 37.234C44.0576 37.234 44.4148 36.8768 44.4148 36.4362C44.4148 35.9955 44.0576 35.6383 43.617 35.6383C43.1763 35.6383 42.8191 35.9955 42.8191 36.4362C42.8191 36.8768 43.1763 37.234 43.617 37.234Z" fill="black"/>
<path d="M40.4255 40.4255C40.8661 40.4255 41.2233 40.0683 41.2233 39.6277C41.2233 39.187 40.8661 38.8298 40.4255 38.8298C39.9849 38.8298 39.6276 39.187 39.6276 39.6277C39.6276 40.0683 39.9849 40.4255 40.4255 40.4255Z" fill="black"/>
</svg>
